public/images/svgs/bookmark.svg

<svg xmlns="http://www.w3.org/2000/svg" class="h-6 w-6" fill="none" viewBox="0 0 24 24" stroke="currentColor">
  <path stroke-linecap="round" stroke-linejoin="round" stroke-width="2" d="m19 18 2 1V3c0-1.1-.9-2-2-2H8.99C7.89 1 7 1.9 7 3h10c1.1 0 2 .9 2 2v13zM15 5H5c-1.1 0-2 .9-2 2v16l7-3 7 3V7c0-1.1-.9-2-2-2z" />
</svg>

<svg width="24" height="24" viewBox="0 0 24 24" fill="none" xmlns="http://www.w3.org/2000/svg">
<path d="M19 18L21 19V3C21 1.9 20.1 1 19 1H8.99C7.89 1 7 1.9 7 3H17C18.1 3 19 3.9 19 5V18ZM15 5H5C3.9 5 3 5.9 3 7V23L10 20L17 23V7C17 5.9 16.1 5 15 5Z" fill="white"/>
</svg>
